resources/svg/projector-fill.svg

<svg fill="currentColor" viewBox="0 0 24 24" xmlns="http://www.w3.org/2000/svg"><path d="M11.1115 12C11.5662 14.004 13.3584 15.5 15.5 15.5C17.6416 15.5 19.4338 14.004 19.8885 12H22V20C22 20.5523 21.5523 21 21 21H3C2.44772 21 2 20.5523 2 20V12H11.1115ZM5 16H7V18H5V16ZM15.5 13.5C14.1193 13.5 13 12.3807 13 11C13 9.61929 14.1193 8.5 15.5 8.5C16.8807 8.5 18 9.61929 18 11C18 12.3807 16.8807 13.5 15.5 13.5ZM11.1115 10H2V4C2 3.44772 2.44772 3 3 3H21C21.5523 3 22 3.44772 22 4V10H19.8885C19.4338 7.99601 17.6416 6.5 15.5 6.5C13.3584 6.5 11.5662 7.99601 11.1115 10Z"/></svg>

<svg xmlns="http://www.w3.org/2000/svg" viewBox="0 0 24 24" fill="currentColor">
    <g>
        <path fill="none" d="M0 0h24v24H0z"/>
        <path d="M11.112 12a4.502 4.502 0 0 0 8.776 0H22v8a1 1 0 0 1-1 1H3a1 1 0 0 1-1-1v-8h9.112zM5 16h2v2H5v-2zm10.5-2.5a2.5 2.5 0 1 1 0-5 2.5 2.5 0 0 1 0 5zM11.112 10H2V4a1 1 0 0 1 1-1h18a1 1 0 0 1 1 1v6h-2.112a4.502 4.502 0 0 0-8.776 0z"/>
    </g>
</svg>
